;FLAVOR:UltiGCode
;TIME:5743
;MATERIAL:9491
;MATERIAL2:0
;NOZZLE_DIAMETER:0.8
;Generated with Cura_SteamEngine 4.0.0
M82 ;absolute extrusion mode

G92 E0
G10
;LAYER_COUNT:800
;LAYER:0
M107
G0 F3600 X91.753 Y109.821 Z0.3
;TYPE:SKIRT
G11
G1 F1800 X92.389 Y109.354 E0.09468
G1 X93.141 Y108.916 E0.19912
G1 X97.324 Y106.785 E0.76246
G1 X98.045 Y106.463 E0.85722
G1 X98.795 Y106.215 E0.95201
G1 X99.643 Y106.031 E1.05614
G1 X104.278 Y105.296 E1.61929
G1 X105.064 Y105.212 E1.71414
G1 X105.853 Y105.208 E1.80882
G1 X106.722 Y105.296 E1.91364
G1 X111.357 Y106.031 E2.47679
G1 X112.129 Y106.194 E2.57147
G1 X112.882 Y106.435 E2.66635
G1 X113.676 Y106.785 E2.77047
G1 X117.859 Y108.916 E3.33382
G1 X118.543 Y109.31 E3.42854
G1 X119.185 Y109.77 E3.52331
G1 X119.833 Y110.351 E3.62775
G1 X123.149 Y113.667 E4.1905
G1 X123.679 Y114.253 E4.28531
G1 X124.146 Y114.889 E4.38
G1 X124.584 Y115.641 E4.48443
G1 X126.715 Y119.824 E5.04777
G1 X127.037 Y120.545 E5.14253
G1 X127.285 Y121.295 E5.23732
G1 X127.469 Y122.143 E5.34145
G1 X128.204 Y126.778 E5.9046
G1 X128.288 Y127.564 E5.99946
G1 X128.292 Y128.353 E6.09414
G1 X128.204 Y129.222 E6.19895
G1 X127.469 Y133.857 E6.7621
G1 X127.306 Y134.629 E6.85678
G1 X127.065 Y135.382 E6.95166
G1 X126.715 Y136.176 E7.05578
G1 X124.584 Y140.359 E7.61913
G1 X124.19 Y141.043 E7.71385
G1 X123.73 Y141.685 E7.80863
G1 X123.149 Y142.333 E7.91306
G1 X119.833 Y145.649 E8.47581
G1 X119.247 Y146.179 E8.57062
G1 X118.611 Y146.646 E8.66531
G1 X117.859 Y147.084 E8.76974
G1 X113.676 Y149.215 E9.33308
G1 X112.955 Y149.537 E9.42784
G1 X112.205 Y149.785 E9.52263
G1 X111.357 Y149.969 E9.62676
G1 X106.722 Y150.704 E10.18991
G1 X105.936 Y150.788 E10.28477
G1 X105.147 Y150.792 E10.37945
G1 X104.278 Y150.704 E10.48426
G1 X99.643 Y149.969 E11.04741
G1 X98.871 Y149.806 E11.14209
G1 X98.118 Y149.565 E11.23697
G1 X97.324 Y149.215 E11.34109
G1 X93.141 Y147.084 E11.90444
G1 X92.457 Y146.69 E11.99916
G1 X91.815 Y146.23 E12.09394
G1 X91.167 Y145.649 E12.19838
G1 X87.851 Y142.333 E12.76112
G1 X87.321 Y141.747 E12.85593
G1 X86.854 Y141.111 E12.95062
G1 X86.416 Y140.359 E13.05505
G1 X84.285 Y136.176 E13.61839
G1 X83.963 Y135.455 E13.71315
G1 X83.715 Y134.705 E13.80794
G1 X83.531 Y133.857 E13.91207
G1 X82.796 Y129.222 E14.47522
G1 X82.712 Y128.436 E14.57008
G1 X82.708 Y127.647 E14.66476
G1 X82.796 Y126.778 E14.76957
G1 X83.531 Y122.143 E15.33272
G1 X83.694 Y121.371 E15.42741
G1 X83.935 Y120.618 E15.52228
G1 X84.285 Y119.824 E15.62641
G1 X86.416 Y115.641 E16.18975
G1 X86.81 Y114.957 E16.28447
G1 X87.27 Y114.315 E16.37925
G1 X87.851 Y113.667 E16.48369
G1 X91.167 Y110.351 E17.04643
G1 X91.753 Y109.821 E17.14125
G0 F3600 X92.021 Y110.119
G1 F1800 X92.643 Y109.666 E17.23358
G1 X93.323 Y109.272 E17.32789
G1 X97.506 Y107.141 E17.89124
G1 X98.208 Y106.828 E17.98347
G1 X98.94 Y106.59 E18.07584
G1 X99.706 Y106.426 E18.16984
G1 X104.341 Y105.691 E18.73299
G1 X105.106 Y105.611 E18.82529
G1 X105.875 Y105.61 E18.91757
G1 X106.659 Y105.691 E19.01215
G1 X111.294 Y106.426 E19.5753
G1 X112.046 Y106.586 E19.66756
G1 X112.778 Y106.823 E19.75989
G1 X113.494 Y107.141 E19.8539
G1 X117.677 Y109.272 E20.41725
G1 X118.343 Y109.657 E20.50956
G1 X118.966 Y110.108 E20.60185
G1 X119.551 Y110.633 E20.69618
G1 X122.867 Y113.949 E21.25892
G1 X123.381 Y114.521 E21.3512
G1 X123.834 Y115.143 E21.44354
G1 X124.228 Y115.823 E21.53785
G1 X126.359 Y120.006 E22.10119
G1 X126.672 Y120.708 E22.19342
G1 X126.91 Y121.44 E22.28579
G1 X127.074 Y122.206 E22.37979
G1 X127.809 Y126.841 E22.94294
G1 X127.889 Y127.606 E23.03524
G1 X127.89 Y128.375 E23.12752
G1 X127.809 Y129.159 E23.22211
G1 X127.074 Y133.794 E23.78525
G1 X126.914 Y134.546 E23.87751
G1 X126.677 Y135.278 E23.96984
G1 X126.359 Y135.994 E24.06386
G1 X124.228 Y140.177 E24.6272
G1 X123.843 Y140.843 E24.71951
G1 X123.392 Y141.466 E24.81181
G1 X122.867 Y142.051 E24.90613
G1 X119.551 Y145.367 E25.46888
G1 X118.979 Y145.881 E25.56116
G1 X118.357 Y146.334 E25.65349
G1 X117.677 Y146.728 E25.7478
G1 X113.494 Y148.859 E26.31115
G1 X112.792 Y149.172 E26.40338
G1 X112.06 Y149.41 E26.49575
G1 X111.294 Y149.574 E26.58975
G1 X106.659 Y150.309 E27.1529
G1 X105.894 Y150.389 E27.2452
G1 X105.125 Y150.39 E27.33748
G1 X104.341 Y150.309 E27.43206
G1 X99.706 Y149.574 E27.99521
G1 X98.954 Y149.414 E28.08747
G1 X98.222 Y149.177 E28.1798
G1 X97.506 Y148.859 E28.27381
G1 X93.323 Y146.728 E28.83716
G1 X92.657 Y146.343 E28.92947
G1 X92.034 Y145.892 E29.02176
G1 X91.449 Y145.367 E29.11609
G1 X88.133 Y142.051 E29.67883
G1 X87.619 Y141.479 E29.77111
G1 X87.166 Y140.857 E29.86345
G1 X86.772 Y140.177 E29.95776
G1 X84.641 Y135.994 E30.5211
G1 X84.328 Y135.292 E30.61333
G1 X84.09 Y134.56 E30.7057
G1 X83.926 Y133.794 E30.7997
G1 X83.191 Y129.159 E31.36285
G1 X83.111 Y128.394 E31.45515
G1 X83.11 Y127.625 E31.54743
G1 X83.191 Y126.841 E31.64202
G1 X83.926 Y122.206 E32.20517
G1 X84.086 Y121.454 E32.29743
G1 X84.323 Y120.722 E32.38975
G1 X84.641 Y120.006 E32.48377
G1 X86.772 Y115.823 E33.04711
G1 X87.157 Y115.157 E33.13942
G1 X87.608 Y114.534 E33.23172
G1 X88.133 Y113.949 E33.32604
G1 X91.449 Y110.633 E33.88879
G1 X92.021 Y110.119 E33.98107
G0 F3600 X92.289 Y110.416
G1 F1800 X92.895 Y109.979 E34.07072
G1 X93.504 Y109.629 E34.15501
G1 X97.687 Y107.498 E34.71836
G1 X98.371 Y107.194 E34.80818
G1 X99.083 Y106.966 E34.89789
G1 X99.769 Y106.821 E34.98203
G1 X104.404 Y106.086 E35.54518
G1 X105.148 Y106.009 E35.63494
G1 X105.896 Y106.011 E35.7247
G1 X106.596 Y106.086 E35.80918
G1 X111.231 Y106.821 E36.37233
G1 X111.963 Y106.978 E36.46217
G1 X112.673 Y107.211 E36.55184
G1 X113.313 Y107.498 E36.636
G1 X117.496 Y109.629 E37.19935
G1 X118.143 Y110.003 E37.28903
G1 X118.747 Y110.445 E37.37884
G1 X119.268 Y110.916 E37.46312
G1 X122.584 Y114.232 E38.02587
G1 X123.084 Y114.789 E38.11569
G1 X123.521 Y115.395 E38.20534
G1 X123.871 Y116.004 E38.28963
G1 X126.002 Y120.187 E38.85297
G1 X126.306 Y120.871 E38.9428
G1 X126.534 Y121.583 E39.03251
G1 X126.679 Y122.269 E39.11665
G1 X127.414 Y126.904 E39.6798
G1 X127.491 Y127.648 E39.76956
G1 X127.489 Y128.396 E39.85932
G1 X127.414 Y129.096 E39.9438
G1 X126.679 Y133.731 E40.50695
G1 X126.522 Y134.463 E40.59678
G1 X126.289 Y135.173 E40.68645
G1 X126.002 Y135.813 E40.77062
G1 X123.871 Y139.996 E41.33397
G1 X123.497 Y140.643 E41.42365
G1 X123.055 Y141.247 E41.51346
G1 X122.584 Y141.768 E41.59774
G1 X119.268 Y145.084 E42.16048
G1 X118.711 Y145.584 E42.2503
G1 X118.105 Y146.021 E42.33996
G1 X117.496 Y146.371 E42.42425
G1 X113.313 Y148.502 E42.98759
G1 X112.629 Y148.806 E43.07742
G1 X111.917 Y149.034 E43.16713
G1 X111.231 Y149.179 E43.25127
G1 X106.596 Y149.914 E43.81442
G1 X105.852 Y149.991 E43.90417
G1 X105.104 Y149.989 E43.99393
G1 X104.404 Y149.914 E44.07842
G1 X99.769 Y149.179 E44.64157
G1 X99.037 Y149.022 E44.7314
G1 X98.327 Y148.789 E44.82107
G1 X97.687 Y148.502 E44.90524
G1 X93.504 Y146.371 E45.46859
G1 X92.857 Y145.997 E45.55826
G1 X92.253 Y145.555 E45.64808
G1 X91.732 Y145.084 E45.73236
G1 X88.416 Y141.768 E46.2951
G1 X87.916 Y141.211 E46.38492
G1 X87.479 Y140.605 E46.47458
G1 X87.129 Y139.996 E46.55887
G1 X84.998 Y135.813 E47.12221
G1 X84.694 Y135.129 E47.21203
G1 X84.466 Y134.417 E47.30175
G1 X84.321 Y133.731 E47.38589
G1 X83.586 Y129.096 E47.94904
G1 X83.509 Y128.352 E48.03879
G1 X83.511 Y127.604 E48.12855
G1 X83.586 Y126.904 E48.21303
G1 X84.321 Y122.269 E48.77618
G1 X84.478 Y121.537 E48.86602
G1 X84.711 Y120.827 E48.95569
G1 X84.998 Y120.187 E49.03986
G1 X87.129 Y116.004 E49.6032
G1 X87.503 Y115.357 E49.69288
G1 X87.945 Y114.753 E49.7827
G1 X88.416 Y114.232 E49.86698
G1 X91.732 Y110.916 E50.42972
G1 X92.289 Y110.416 E50.51954
G0 F3600 X92.556 Y110.715
G1 F1800 X93.147 Y110.292 E50.60676
G1 X93.686 Y109.985 E50.68119
G1 X97.869 Y107.854 E51.24454
G1 X98.533 Y107.561 E51.33163
G1 X99.226 Y107.342 E51.41884
G1 X99.831 Y107.216 E51.493
G1 X104.466 Y106.481 E52.05615
G1 X105.189 Y106.407 E52.14336
G1 X105.915 Y106.413 E52.23049
G1 X106.534 Y106.481 E52.30521
G1 X111.169 Y107.216 E52.86836
G1 X111.879 Y107.37 E52.95554
G1 X112.568 Y107.6 E53.04271
G1 X113.131 Y107.854 E53.11683
G1 X117.314 Y109.985 E53.68017
G1 X117.942 Y110.35 E53.76733
G1 X118.526 Y110.782 E53.8545
G1 X118.985 Y111.199 E53.92892
G1 X122.301 Y114.515 E54.49166
G1 X122.785 Y115.056 E54.57877
G1 X123.208 Y115.647 E54.66599
G1 X123.515 Y116.186 E54.74042
G1 X125.646 Y120.369 E55.30377
G1 X125.939 Y121.033 E55.39086
G1 X126.158 Y121.726 E55.47807
G1 X126.284 Y122.331 E55.55223
G1 X127.019 Y126.966 E56.11538
G1 X127.093 Y127.689 E56.20259
G1 X127.087 Y128.415 E56.28972
G1 X127.019 Y129.034 E56.36444
G1 X126.284 Y133.669 E56.92759
G1 X126.13 Y134.379 E57.01477
G1 X125.9 Y135.068 E57.10194
G1 X125.646 Y135.631 E57.17606
G1 X123.515 Y139.814 E57.7394
G1 X123.15 Y140.442 E57.82656
G1 X122.718 Y141.026 E57.91373
G1 X122.301 Y141.485 E57.98815
G1 X118.985 Y144.801 E58.55089
G1 X118.444 Y145.285 E58.638
G1 X117.853 Y145.708 E58.72522
G1 X117.314 Y146.015 E58.79965
G1 X113.131 Y148.146 E59.363
G1 X112.467 Y148.439 E59.45009
G1 X111.774 Y148.658 E59.5373
G1 X111.169 Y148.784 E59.61146
G1 X106.534 Y149.519 E60.17461
G1 X105.811 Y149.593 E60.26182
G1 X105.085 Y149.587 E60.34895
G1 X104.466 Y149.519 E60.42367
G1 X99.831 Y148.784 E60.98682
G1 X99.121 Y148.63 E61.074
G1 X98.432 Y148.4 E61.16117
G1 X97.869 Y148.146 E61.23529
G1 X93.686 Y146.015 E61.79863
G1 X93.058 Y145.65 E61.88579
G1 X92.474 Y145.218 E61.97296
G1 X92.015 Y144.801 E62.04738
G1 X88.699 Y141.485 E62.61013
G1 X88.215 Y140.944 E62.69723
G1 X87.792 Y140.353 E62.78445
G1 X87.485 Y139.814 E62.85888
G1 X85.354 Y135.631 E63.42223
G1 X85.061 Y134.967 E63.50932
G1 X84.842 Y134.274 E63.59653
G1 X84.716 Y133.669 E63.67069
G1 X83.981 Y129.034 E64.23384
G1 X83.907 Y128.311 E64.32105
G1 X83.913 Y127.585 E64.40818
G1 X83.981 Y126.966 E64.4829
G1 X84.716 Y122.331 E65.04605
G1 X84.87 Y121.621 E65.13324
G1 X85.1 Y120.932 E65.2204
G1 X85.354 Y120.369 E65.29452
G1 X87.485 Y116.186 E65.85786
G1 X87.85 Y115.558 E65.94503
G1 X88.282 Y114.974 E66.0322
G1 X88.699 Y114.515 E66.10661
G1 X92.015 Y111.199 E66.66936
G1 X92.556 Y110.715 E66.75646
G0 F3600 X92.823 Y111.013
G1 F1800 X93.398 Y110.607 E66.84093
G1 X93.868 Y110.342 E66.90568
G1 X98.051 Y108.211 E67.46902
G1 X98.695 Y107.927 E67.55348
G1 X99.367 Y107.719 E67.6379
G1 X99.894 Y107.612 E67.70243
G1 X104.529 Y106.877 E68.26558
G1 X105.229 Y106.806 E68.35001
G1 X105.933 Y106.815 E68.4345
G1 X106.471 Y106.877 E68.49948
G1 X111.106 Y107.612 E69.06263
G1 X111.794 Y107.761 E69.14711
G1 X112.46 Y107.988 E69.23154
G1 X112.949 Y108.211 E69.29604
G1 X117.132 Y110.342 E69.85938
G1 X117.741 Y110.696 E69.94391
G1 X118.305 Y111.118 E70.02844
G1 X118.702 Y111.482 E70.09307
G1 X122.018 Y114.798 E70.65581
G1 X122.487 Y115.323 E70.74029
G1 X122.893 Y115.898 E70.82476
G1 X123.158 Y116.368 E70.88951
G1 X125.289 Y120.551 E71.45285
G1 X125.573 Y121.195 E71.53731
G1 X125.781 Y121.867 E71.62173
G1 X125.888 Y122.394 E71.68626
G1 X126.623 Y127.029 E72.24941
G1 X126.694 Y127.729 E72.33384
G1 X126.685 Y128.433 E72.41832
G1 X126.623 Y128.971 E72.48331
G1 X125.888 Y133.606 E73.04646
G1 X125.739 Y134.294 E73.13093
G1 X125.512 Y134.96 E73.21537
G1 X125.289 Y135.449 E73.27986
G1 X123.158 Y139.632 E73.84321
G1 X122.804 Y140.241 E73.92774
G1 X122.382 Y140.805 E74.01226
G1 X122.018 Y141.202 E74.0769
G1 X118.702 Y144.518 E74.63964
G1 X118.177 Y144.987 E74.72412
G1 X117.602 Y145.393 E74.80859
G1 X117.132 Y145.658 E74.87333
G1 X112.949 Y147.789 E75.43668
G1 X112.305 Y148.073 E75.52114
G1 X111.633 Y148.281 E75.60555
G1 X111.106 Y148.388 E75.67008
G1 X106.471 Y149.123 E76.23323
G1 X105.771 Y149.194 E76.31766
G1 X105.067 Y149.185 E76.40215
G1 X104.529 Y149.123 E76.46714
G1 X99.894 Y148.388 E77.03029
G1 X99.206 Y148.239 E77.11476
G1 X98.54 Y148.012 E77.1992
G1 X98.051 Y147.789 E77.26369
G1 X93.868 Y145.658 E77.82703
G1 X93.259 Y145.304 E77.91156
G1 X92.695 Y144.882 E77.99609
G1 X92.298 Y144.518 E78.06073
G1 X88.982 Y141.202 E78.62347
G1 X88.513 Y140.677 E78.70795
G1 X88.107 Y140.102 E78.79241
G1 X87.842 Y139.632 E78.85716
G1 X85.711 Y135.449 E79.42051
G1 X85.427 Y134.805 E79.50497
G1 X85.219 Y134.133 E79.58938
G1 X85.112 Y133.606 E79.65391
G1 X84.377 Y128.971 E80.21706
G1 X84.306 Y128.271 E80.30149
G1 X84.315 Y127.567 E80.38598
G1 X84.377 Y127.029 E80.45097
G1 X85.112 Y122.394 E81.01412
G1 X85.261 Y121.706 E81.09859
G1 X85.488 Y121.04 E81.18302
G1 X85.711 Y120.551 E81.24752
G1 X87.842 Y116.368 E81.81086
G1 X88.196 Y115.759 E81.89539
G1 X88.618 Y115.195 E81.97992
G1 X88.982 Y114.798 E82.04455
G1 X92.298 Y111.482 E82.6073
G1 X92.823 Y111.013 E82.69177
G0 F3600 X93.09 Y111.312
G1 F1800 X93.648 Y110.923 E82.7734
G1 X94.049 Y110.698 E82.82858
G1 X98.232 Y108.567 E83.39192
G1 X98.856 Y108.294 E83.47365
G1 X99.507 Y108.096 E83.55531
G1 X99.957 Y108.007 E83.61035
G1 X104.592 Y107.272 E84.1735
G1 X105.269 Y107.205 E84.25514
G1 X105.95 Y107.217 E84.33687
G1 X106.408 Y107.272 E84.39223
G1 X111.043 Y108.007 E84.95538
G1 X111.708 Y108.153 E85.03708
G1 X112.352 Y108.375 E85.11882
G1 X112.768 Y108.567 E85.1738
G1 X116.951 Y110.698 E85.73715
G1 X117.538 Y111.042 E85.81879
G1 X118.081 Y111.453 E85.90051
G1 X118.419 Y111.765 E85.95571
G1 X121.735 Y115.081 E86.51845
G1 X122.188 Y115.59 E86.60022
G1 X122.577 Y116.148 E86.68184
G1 X122.802 Y116.549 E86.73702
G1 X124.933 Y120.732 E87.30037
G1 X125.206 Y121.356 E87.3821
G1 X125.404 Y122.007 E87.46375
G1 X125.493 Y122.457 E87.5188
G1 X126.228 Y127.092 E88.08195
G1 X126.295 Y127.769 E88.16358
G1 X126.283 Y128.45 E88.24532
G1 X126.228 Y128.908 E88.30067
G1 X125.493 Y133.543 E88.86382
G1 X125.347 Y134.208 E88.94552
G1 X125.125 Y134.852 E89.02727
G1 X124.933 Y135.268 E89.08225
G1 X122.802 Y139.451 E89.64559
G1 X122.458 Y140.038 E89.72723
G1 X122.047 Y140.581 E89.80896
G1 X121.735 Y140.919 E89.86415
G1 X118.419 Y144.235 E90.4269
G1 X117.91 Y144.688 E90.50866
G1 X117.352 Y145.077 E90.59029
G1 X116.951 Y145.302 E90.64547
G1 X112.768 Y147.433 E91.20881
G1 X112.144 Y147.706 E91.29054
G1 X111.493 Y147.904 E91.3722
G1 X111.043 Y147.993 E91.42724
G1 X106.408 Y148.728 E91.99039
G1 X105.731 Y148.795 E92.07203
G1 X105.05 Y148.783 E92.15376
G1 X104.592 Y148.728 E92.20912
G1 X99.957 Y147.993 E92.77227
G1 X99.292 Y147.847 E92.85397
G1 X98.648 Y147.625 E92.93571
G1 X98.232 Y147.433 E92.99069
G1 X94.049 Y145.302 E93.55403
G1 X93.462 Y144.958 E93.63568
G1 X92.919 Y144.547 E93.7174
G1 X92.581 Y144.235 E93.7726
G1 X89.265 Y140.919 E94.33534
G1 X88.812 Y140.41 E94.41711
G1 X88.423 Y139.852 E94.49873
G1 X88.198 Y139.451 E94.55391
G1 X86.067 Y135.268 E95.11726
G1 X85.794 Y134.644 E95.19899
G1 X85.596 Y133.993 E95.28064
G1 X85.507 Y133.543 E95.33569
G1 X84.772 Y128.908 E95.89884
G1 X84.705 Y128.231 E95.98047
G1 X84.717 Y127.55 E96.06221
G1 X84.772 Y127.092 E96.11756
G1 X85.507 Y122.457 E96.68071
G1 X85.653 Y121.792 E96.76241
G1 X85.875 Y121.148 E96.84416
G1 X86.067 Y120.732 E96.89914
G1 X88.198 Y116.549 E97.46248
G1 X88.542 Y115.962 E97.54412
G1 X88.953 Y115.419 E97.62584
G1 X89.265 Y115.081 E97.68104
G1 X92.581 Y111.765 E98.24379
G1 X93.09 Y111.312 E98.32555
G0 F3600 X93.356 Y111.612
G1 F1800 X93.897 Y111.24 E98.40434
G1 X94.231 Y111.054 E98.45022
G1 X98.414 Y108.923 E99.01356
G1 X99.016 Y108.661 E99.09235
G1 X99.646 Y108.474 E99.17121
G1 X100.019 Y108.402 E99.21679
G1 X104.654 Y107.667 E99.77994
G1 X105.308 Y107.603 E99.8588
G1 X105.965 Y107.62 E99.93766
G1 X106.346 Y107.667 E99.98373
G1 X110.981 Y108.402 E100.54688
G1 X111.622 Y108.544 E100.62566
G1 X112.242 Y108.763 E100.70457
G1 X112.586 Y108.923 E100.7501
G1 X116.769 Y111.054 E101.31344
G1 X117.335 Y111.388 E101.3923
G1 X117.857 Y111.787 E101.47115
G1 X118.136 Y112.048 E101.51699
G1 X121.452 Y115.364 E102.07974
G1 X121.888 Y115.856 E102.15862
G1 X122.26 Y116.397 E102.23741
G1 X122.446 Y116.731 E102.28329
G1 X124.577 Y120.914 E102.84663
G1 X124.839 Y121.516 E102.92542
G1 X125.026 Y122.146 E103.00428
G1 X125.098 Y122.519 E103.04986
G1 X125.833 Y127.154 E103.61301
G1 X125.897 Y127.808 E103.69187
G1 X125.88 Y128.465 E103.77073
G1 X125.833 Y128.846 E103.8168
G1 X125.098 Y133.481 E104.37995
G1 X124.956 Y134.122 E104.45873
G1 X124.737 Y134.742 E104.53764
