;FLAVOR:UltiGCode
;TIME:5793
;MATERIAL:9781
;MATERIAL2:0
;NOZZLE_DIAMETER:0.8
;Generated with Cura_SteamEngine 4.0.0
M82 ;absolute extrusion mode

G92 E0
G10
;LAYER_COUNT:790
;LAYER:0
M107
G0 F3600 X99.27 Y81.315 Z0.3
;TYPE:SKIRT
G11
G1 F1800 X99.851 Y80.667 E0.10444
G1 X103.167 Y77.351 E0.66718
G1 X103.753 Y76.821 E0.762
G1 X104.389 Y76.354 E0.85668
G1 X105.141 Y75.916 E0.96111
G1 X109.324 Y73.785 E1.52446
G1 X110.045 Y73.463 E1.61921
G1 X110.795 Y73.215 E1.71401
G1 X111.643 Y73.031 E1.81813
G1 X116.278 Y72.296 E2.38128
G1 X117.064 Y72.212 E2.47614
G1 X117.853 Y72.208 E2.57082
G1 X118.722 Y72.296 E2.67564
G1 X123.357 Y73.031 E3.23879
G1 X124.129 Y73.194 E3.33347
G1 X124.882 Y73.435 E3.42834
G1 X125.676 Y73.785 E3.53247
G1 X129.859 Y75.916 E4.09581
G1 X130.543 Y76.31 E4.19054
G1 X131.185 Y76.77 E4.28531
G1 X131.833 Y77.351 E4.38975
G1 X135.149 Y80.667 E4.95249
G1 X135.679 Y81.253 E5.04731
G1 X136.146 Y81.889 E5.14199
G1 X136.584 Y82.641 E5.24642
G1 X138.715 Y86.824 E5.80977
G1 X139.037 Y87.545 E5.90453
G1 X139.285 Y88.295 E5.99932
G1 X139.469 Y89.143 E6.10345
G1 X140.204 Y93.778 E6.6666
G1 X140.288 Y94.564 E6.76145
G1 X140.292 Y95.353 E6.85613
G1 X140.204 Y96.222 E6.96095
G1 X139.469 Y100.857 E7.5241
G1 X139.306 Y101.629 E7.61878
G1 X139.065 Y102.382 E7.71365
G1 X138.715 Y103.176 E7.81778
G1 X136.584 Y107.359 E8.38113
G1 X136.19 Y108.043 E8.47585
G1 X135.73 Y108.685 E8.57062
G1 X135.149 Y109.333 E8.67506
G1 X131.833 Y112.649 E9.23781
G1 X131.247 Y113.179 E9.33262
G1 X130.611 Y113.646 E9.42731
G1 X129.859 Y114.084 E9.53174
G1 X125.676 Y116.215 E10.09508
G1 X125.025 Y116.506 E10.18065
G1 X126.715 Y119.824 E10.62748
G1 X127.037 Y120.545 E10.72224
G1 X127.285 Y121.295 E10.81703
G1 X127.469 Y122.143 E10.92116
G1 X128.204 Y126.778 E11.48431
G1 X128.288 Y127.564 E11.57917
G1 X128.292 Y128.353 E11.67385
G1 X128.204 Y129.222 E11.77866
G1 X127.469 Y133.857 E12.34181
G1 X127.306 Y134.629 E12.43649
G1 X127.065 Y135.382 E12.53137
G1 X126.715 Y136.176 E12.63549
G1 X124.584 Y140.359 E13.19884
G1 X124.19 Y141.043 E13.29356
G1 X123.73 Y141.685 E13.38834
G1 X123.149 Y142.333 E13.49278
G1 X119.833 Y145.649 E14.05552
G1 X119.247 Y146.179 E14.15033
G1 X118.611 Y146.646 E14.24502
G1 X117.859 Y147.084 E14.34945
G1 X113.676 Y149.215 E14.91279
G1 X112.955 Y149.537 E15.00755
G1 X112.205 Y149.785 E15.10234
G1 X111.357 Y149.969 E15.20647
G1 X106.722 Y150.704 E15.76962
G1 X105.936 Y150.788 E15.86448
G1 X105.147 Y150.792 E15.95916
G1 X104.278 Y150.704 E16.06397
G1 X99.643 Y149.969 E16.62712
G1 X98.871 Y149.806 E16.7218
G1 X98.118 Y149.565 E16.81668
G1 X97.324 Y149.215 E16.92081
G1 X93.141 Y147.084 E17.48415
G1 X92.457 Y146.69 E17.57887
G1 X91.815 Y146.23 E17.67365
G1 X91.167 Y145.649 E17.77809
G1 X87.851 Y142.333 E18.34083
G1 X87.321 Y141.747 E18.43565
G1 X86.854 Y141.111 E18.53033
G1 X86.416 Y140.359 E18.63476
G1 X84.285 Y136.176 E19.19811
G1 X83.963 Y135.455 E19.29286
G1 X83.715 Y134.705 E19.38765
G1 X83.531 Y133.857 E19.49178
G1 X82.796 Y129.222 E20.05493
G1 X82.712 Y128.436 E20.14979
G1 X82.708 Y127.647 E20.24447
G1 X82.796 Y126.778 E20.34928
G1 X83.531 Y122.143 E20.91243
G1 X83.694 Y121.371 E21.00712
G1 X83.935 Y120.618 E21.10199
G1 X84.285 Y119.824 E21.20612
G1 X86.416 Y115.641 E21.76946
G1 X86.81 Y114.957 E21.86419
G1 X87.27 Y114.315 E21.95896
G1 X87.851 Y113.667 E22.0634
G1 X91.167 Y110.351 E22.62614
G1 X91.753 Y109.821 E22.72096
G1 X92.389 Y109.354 E22.81564
G1 X93.141 Y108.916 E22.92007
G1 X97.324 Y106.785 E23.48342
G1 X97.975 Y106.494 E23.56899
G1 X96.285 Y103.176 E24.01582
G1 X95.963 Y102.455 E24.11058
G1 X95.715 Y101.705 E24.20537
G1 X95.531 Y100.857 E24.3095
G1 X94.796 Y96.222 E24.87265
G1 X94.712 Y95.436 E24.9675
G1 X94.708 Y94.647 E25.06218
G1 X94.796 Y93.778 E25.167
G1 X95.531 Y89.143 E25.73015
G1 X95.694 Y88.371 E25.82483
G1 X95.935 Y87.618 E25.9197
G1 X96.285 Y86.824 E26.02383
G1 X98.416 Y82.641 E26.58718
G1 X98.81 Y81.957 E26.6819
G1 X99.27 Y81.315 E26.77667
G0 F3600 X99.608 Y81.534
G1 F1800 X100.133 Y80.949 E26.871
G1 X103.449 Y77.633 E27.43374
G1 X104.021 Y77.119 E27.52602
G1 X104.643 Y76.666 E27.61836
G1 X105.323 Y76.272 E27.71267
G1 X109.506 Y74.141 E28.27601
G1 X110.208 Y73.828 E28.36825
G1 X110.94 Y73.59 E28.46061
G1 X111.706 Y73.426 E28.55462
G1 X116.341 Y72.691 E29.11776
G1 X117.106 Y72.611 E29.21007
G1 X117.875 Y72.61 E29.30235
G1 X118.659 Y72.691 E29.39693
G1 X123.294 Y73.426 E29.96008
G1 X124.046 Y73.586 E30.05234
G1 X124.778 Y73.823 E30.14467
G1 X125.494 Y74.141 E30.23868
G1 X129.677 Y76.272 E30.80202
G1 X130.343 Y76.657 E30.89434
G1 X130.966 Y77.108 E30.98663
G1 X131.551 Y77.633 E31.08095
G1 X134.867 Y80.949 E31.6437
G1 X135.381 Y81.521 E31.73598
G1 X135.834 Y82.143 E31.82831
G1 X136.228 Y82.823 E31.92262
G1 X138.359 Y87.006 E32.48597
G1 X138.672 Y87.708 E32.5782
G1 X138.91 Y88.44 E32.67057
G1 X139.074 Y89.206 E32.76457
G1 X139.809 Y93.841 E33.32772
G1 X139.889 Y94.606 E33.42002
G1 X139.89 Y95.375 E33.5123
G1 X139.809 Y96.159 E33.60688
G1 X139.074 Y100.794 E34.17003
G1 X138.914 Y101.546 E34.26229
G1 X138.677 Y102.278 E34.35462
G1 X138.359 Y102.994 E34.44863
G1 X136.228 Y107.177 E35.01198
G1 X135.843 Y107.843 E35.10429
G1 X135.392 Y108.466 E35.19658
G1 X134.867 Y109.051 E35.29091
G1 X131.551 Y112.367 E35.85365
G1 X130.979 Y112.881 E35.94593
G1 X130.357 Y113.334 E36.03827
G1 X129.677 Y113.728 E36.13258
G1 X125.494 Y115.859 E36.69592
G1 X124.792 Y116.172 E36.78816
G1 X124.461 Y116.28 E36.82994
G1 X126.359 Y120.006 E37.33172
G1 X126.672 Y120.708 E37.42396
G1 X126.91 Y121.44 E37.51633
G1 X127.074 Y122.206 E37.61033
G1 X127.809 Y126.841 E38.17348
G1 X127.889 Y127.606 E38.26578
G1 X127.89 Y128.375 E38.35806
G1 X127.809 Y129.159 E38.45264
G1 X127.074 Y133.794 E39.01579
G1 X126.914 Y134.546 E39.10805
G1 X126.677 Y135.278 E39.20038
G1 X126.359 Y135.994 E39.29439
G1 X124.228 Y140.177 E39.85774
G1 X123.843 Y140.843 E39.95005
G1 X123.392 Y141.466 E40.04234
G1 X122.867 Y142.051 E40.13667
G1 X119.551 Y145.367 E40.69941
G1 X118.979 Y145.881 E40.79169
G1 X118.357 Y146.334 E40.88403
G1 X117.677 Y146.728 E40.97834
G1 X113.494 Y148.859 E41.54168
G1 X112.792 Y149.172 E41.63391
G1 X112.06 Y149.41 E41.72628
G1 X111.294 Y149.574 E41.82028
G1 X106.659 Y150.309 E42.38343
G1 X105.894 Y150.389 E42.47573
G1 X105.125 Y150.39 E42.56801
G1 X104.341 Y150.309 E42.66259
G1 X99.706 Y149.574 E43.22574
G1 X98.954 Y149.414 E43.318
G1 X98.222 Y149.177 E43.41033
G1 X97.506 Y148.859 E43.50435
G1 X93.323 Y146.728 E44.06769
G1 X92.657 Y146.343 E44.16
G1 X92.034 Y145.892 E44.2523
G1 X91.449 Y145.367 E44.34662
G1 X88.133 Y142.051 E44.90936
G1 X87.619 Y141.479 E45.00165
G1 X87.166 Y140.857 E45.09398
G1 X86.772 Y140.177 E45.18829
G1 X84.641 Y135.994 E45.75164
G1 X84.328 Y135.292 E45.84387
G1 X84.09 Y134.56 E45.93624
G1 X83.926 Y133.794 E46.03024
G1 X83.191 Y129.159 E46.59339
G1 X83.111 Y128.394 E46.68569
G1 X83.11 Y127.625 E46.77797
G1 X83.191 Y126.841 E46.87255
G1 X83.926 Y122.206 E47.4357
G1 X84.086 Y121.454 E47.52796
G1 X84.323 Y120.722 E47.62029
G1 X84.641 Y120.006 E47.7143
G1 X86.772 Y115.823 E48.27765
G1 X87.157 Y115.157 E48.36996
G1 X87.608 Y114.534 E48.46225
G1 X88.133 Y113.949 E48.55658
G1 X91.449 Y110.633 E49.11932
G1 X92.021 Y110.119 E49.2116
G1 X92.643 Y109.666 E49.30394
G1 X93.323 Y109.272 E49.39825
G1 X97.506 Y107.141 E49.96159
G1 X98.208 Y106.828 E50.05382
G1 X98.539 Y106.72 E50.09561
G1 X96.641 Y102.994 E50.59739
G1 X96.328 Y102.292 E50.68963
G1 X96.09 Y101.56 E50.78199
G1 X95.926 Y100.794 E50.876
G1 X95.191 Y96.159 E51.43915
G1 X95.111 Y95.394 E51.53145
G1 X95.11 Y94.625 E51.62373
G1 X95.191 Y93.841 E51.71831
G1 X95.926 Y89.206 E52.28146
G1 X96.086 Y88.454 E52.37372
G1 X96.323 Y87.722 E52.46605
G1 X96.641 Y87.006 E52.56006
G1 X98.772 Y82.823 E53.1234
G1 X99.157 Y82.157 E53.21572
G1 X99.608 Y81.534 E53.30801
G0 F3600 X99.945 Y81.753
G1 F1800 X100.416 Y81.232 E53.39229
G1 X103.732 Y77.916 E53.95503
G1 X104.289 Y77.416 E54.04485
G1 X104.895 Y76.979 E54.13451
G1 X105.504 Y76.629 E54.2188
G1 X109.687 Y74.498 E54.78214
G1 X110.371 Y74.194 E54.87197
G1 X111.083 Y73.966 E54.96168
G1 X111.769 Y73.821 E55.04582
G1 X116.404 Y73.086 E55.60897
G1 X117.148 Y73.009 E55.69872
G1 X117.896 Y73.011 E55.78848
G1 X118.596 Y73.086 E55.87297
G1 X123.231 Y73.821 E56.43612
G1 X123.963 Y73.978 E56.52595
G1 X124.673 Y74.211 E56.61562
G1 X125.313 Y74.498 E56.69979
G1 X129.496 Y76.629 E57.26314
G1 X130.143 Y77.003 E57.35281
G1 X130.747 Y77.445 E57.44263
G1 X131.268 Y77.916 E57.52691
G1 X134.584 Y81.232 E58.08965
G1 X135.084 Y81.789 E58.17947
G1 X135.521 Y82.395 E58.26913
G1 X135.871 Y83.004 E58.35342
G1 X138.002 Y87.187 E58.91676
G1 X138.306 Y87.871 E59.00658
G1 X138.534 Y88.583 E59.0963
G1 X138.679 Y89.269 E59.18044
G1 X139.414 Y93.904 E59.74359
G1 X139.491 Y94.648 E59.83334
G1 X139.489 Y95.396 E59.9231
G1 X139.414 Y96.096 E60.00758
G1 X138.679 Y100.731 E60.57073
G1 X138.522 Y101.463 E60.66057
G1 X138.289 Y102.173 E60.75024
G1 X138.002 Y102.813 E60.83441
G1 X135.871 Y106.996 E61.39775
G1 X135.497 Y107.643 E61.48743
G1 X135.055 Y108.247 E61.57725
G1 X134.584 Y108.768 E61.66153
G1 X131.268 Y112.084 E62.22427
G1 X130.711 Y112.584 E62.31409
G1 X130.105 Y113.021 E62.40375
G1 X129.496 Y113.371 E62.48804
G1 X125.313 Y115.502 E63.05138
G1 X124.629 Y115.806 E63.1412
G1 X123.917 Y116.034 E63.23092
G1 X123.889 Y116.04 E63.23435
G1 X126.002 Y120.187 E63.79287
G1 X126.306 Y120.871 E63.88269
G1 X126.534 Y121.583 E63.9724
G1 X126.679 Y122.269 E64.05654
G1 X127.414 Y126.904 E64.61969
G1 X127.491 Y127.648 E64.70945
G1 X127.489 Y128.396 E64.79921
G1 X127.414 Y129.096 E64.88369
G1 X126.679 Y133.731 E65.44684
G1 X126.522 Y134.463 E65.53668
G1 X126.289 Y135.173 E65.62635
G1 X126.002 Y135.813 E65.71052
G1 X123.871 Y139.996 E66.27386
G1 X123.497 Y140.643 E66.36354
G1 X123.055 Y141.247 E66.45335
G1 X122.584 Y141.768 E66.53763
G1 X119.268 Y145.084 E67.10038
G1 X118.711 Y145.584 E67.1902
G1 X118.105 Y146.021 E67.27985
G1 X117.496 Y146.371 E67.36414
G1 X113.313 Y148.502 E67.92749
G1 X112.629 Y148.806 E68.01731
G1 X111.917 Y149.034 E68.10702
G1 X111.231 Y149.179 E68.19116
G1 X106.596 Y149.914 E68.75431
G1 X105.852 Y149.991 E68.84407
G1 X105.104 Y149.989 E68.93383
G1 X104.404 Y149.914 E69.01831
G1 X99.769 Y149.179 E69.58146
G1 X99.037 Y149.022 E69.67129
G1 X98.327 Y148.789 E69.76097
G1 X97.687 Y148.502 E69.84513
G1 X93.504 Y146.371 E70.40848
G1 X92.857 Y145.997 E70.49816
G1 X92.253 Y145.555 E70.58797
G1 X91.732 Y145.084 E70.67225
G1 X88.416 Y141.768 E71.235
G1 X87.916 Y141.211 E71.32481
G1 X87.479 Y140.605 E71.41447
G1 X87.129 Y139.996 E71.49876
G1 X84.998 Y135.813 E72.0621
G1 X84.694 Y135.129 E72.15193
G1 X84.466 Y134.417 E72.24164
G1 X84.321 Y133.731 E72.32578
G1 X83.586 Y129.096 E72.88893
G1 X83.509 Y128.352 E72.97868
G1 X83.511 Y127.604 E73.06845
G1 X83.586 Y126.904 E73.15293
G1 X84.321 Y122.269 E73.71608
G1 X84.478 Y121.537 E73.80591
G1 X84.711 Y120.827 E73.89558
G1 X84.998 Y120.187 E73.97975
G1 X87.129 Y116.004 E74.5431
G1 X87.503 Y115.357 E74.63277
G1 X87.945 Y114.753 E74.72259
G1 X88.416 Y114.232 E74.80687
G1 X91.732 Y110.916 E75.36961
G1 X92.289 Y110.416 E75.45943
G1 X92.895 Y109.979 E75.54909
G1 X93.504 Y109.629 E75.63338
G1 X97.687 Y107.498 E76.19672
G1 X98.371 Y107.194 E76.28654
G1 X99.083 Y106.966 E76.37626
G1 X99.111 Y106.96 E76.37969
G1 X96.998 Y102.813 E76.93821
G1 X96.694 Y102.129 E77.02803
G1 X96.466 Y101.417 E77.11774
G1 X96.321 Y100.731 E77.20188
G1 X95.586 Y96.096 E77.76503
G1 X95.509 Y95.352 E77.85479
G1 X95.511 Y94.604 E77.94455
G1 X95.586 Y93.904 E78.02903
G1 X96.321 Y89.269 E78.59218
G1 X96.478 Y88.537 E78.68202
G1 X96.711 Y87.827 E78.77169
G1 X96.998 Y87.187 E78.85586
G1 X99.129 Y83.004 E79.4192
G1 X99.503 Y82.357 E79.50888
G1 X99.945 Y81.753 E79.59869
G0 F3600 X100.282 Y81.974
G1 F1800 X100.699 Y81.515 E79.67311
G1 X104.015 Y78.199 E80.23585
G1 X104.556 Y77.715 E80.32296
G1 X105.147 Y77.292 E80.41018
G1 X105.686 Y76.985 E80.48461
G1 X109.869 Y74.854 E81.04796
G1 X110.533 Y74.561 E81.13505
G1 X111.226 Y74.342 E81.22226
G1 X111.831 Y74.216 E81.29642
G1 X116.466 Y73.481 E81.85957
G1 X117.189 Y73.407 E81.94678
G1 X117.915 Y73.413 E82.03391
G1 X118.534 Y73.481 E82.10863
G1 X123.169 Y74.216 E82.67178
G1 X123.879 Y74.37 E82.75896
G1 X124.568 Y74.6 E82.84613
G1 X125.131 Y74.854 E82.92025
G1 X129.314 Y76.985 E83.48359
G1 X129.942 Y77.35 E83.57075
G1 X130.526 Y77.782 E83.65792
G1 X130.985 Y78.199 E83.73234
G1 X134.301 Y81.515 E84.29508
G1 X134.785 Y82.056 E84.38219
G1 X135.208 Y82.647 E84.46941
G1 X135.515 Y83.186 E84.54384
G1 X137.646 Y87.369 E85.10719
G1 X137.939 Y88.033 E85.19428
G1 X138.158 Y88.726 E85.28149
G1 X138.284 Y89.331 E85.35565
G1 X139.019 Y93.966 E85.9188
G1 X139.093 Y94.689 E86.00601
G1 X139.087 Y95.415 E86.09314
G1 X139.019 Y96.034 E86.16786
G1 X138.284 Y100.669 E86.73101
G1 X138.13 Y101.379 E86.81819
G1 X137.9 Y102.068 E86.90536
G1 X137.646 Y102.631 E86.97948
G1 X135.515 Y106.814 E87.54282
G1 X135.15 Y107.442 E87.62999
G1 X134.718 Y108.026 E87.71716
G1 X134.301 Y108.485 E87.79157
G1 X130.985 Y111.801 E88.35432
G1 X130.444 Y112.285 E88.44142
G1 X129.853 Y112.708 E88.52864
G1 X129.314 Y113.015 E88.60307
G1 X125.131 Y115.146 E89.16642
G1 X124.467 Y115.439 E89.25351
G1 X123.774 Y115.658 E89.34072
G1 X123.274 Y115.762 E89.40201
G1 X123.515 Y116.186 E89.46053
G1 X125.646 Y120.369 E90.02388
G1 X125.939 Y121.033 E90.11097
G1 X126.158 Y121.726 E90.19818
G1 X126.284 Y122.331 E90.27234
G1 X127.019 Y126.966 E90.83549
G1 X127.093 Y127.689 E90.9227
G1 X127.087 Y128.415 E91.00983
G1 X127.019 Y129.034 E91.08455
G1 X126.284 Y133.669 E91.6477
G1 X126.13 Y134.379 E91.73488
G1 X125.9 Y135.068 E91.82205
G1 X125.646 Y135.631 E91.89617
G1 X123.515 Y139.814 E92.45951
G1 X123.15 Y140.442 E92.54668
G1 X122.718 Y141.026 E92.63384
G1 X122.301 Y141.485 E92.70826
G1 X118.985 Y144.801 E93.27101
G1 X118.444 Y145.285 E93.35811
G1 X117.853 Y145.708 E93.44533
G1 X117.314 Y146.015 E93.51976
G1 X113.131 Y148.146 E94.08311
G1 X112.467 Y148.439 E94.1702
G1 X111.774 Y148.658 E94.25741
G1 X111.169 Y148.784 E94.33157
G1 X106.534 Y149.519 E94.89472
G1 X105.811 Y149.593 E94.98193
G1 X105.085 Y149.587 E95.06906
G1 X104.466 Y149.519 E95.14378
G1 X99.831 Y148.784 E95.70693
G1 X99.121 Y148.63 E95.79412
G1 X98.432 Y148.4 E95.88128
G1 X97.869 Y148.146 E95.9554
G1 X93.686 Y146.015 E96.51874
G1 X93.058 Y145.65 E96.60591
G1 X92.474 Y145.218 E96.69308
G1 X92.015 Y144.801 E96.76749
G1 X88.699 Y141.485 E97.33024
G1 X88.215 Y140.944 E97.41734
G1 X87.792 Y140.353 E97.50456
G1 X87.485 Y139.814 E97.57899
G1 X85.354 Y135.631 E98.14234
G1 X85.061 Y134.967 E98.22943
G1 X84.842 Y134.274 E98.31664
G1 X84.716 Y133.669 E98.3908
G1 X83.981 Y129.034 E98.95395
G1 X83.907 Y128.311 E99.04117
G1 X83.913 Y127.585 E99.12829
G1 X83.981 Y126.966 E99.20301
G1 X84.716 Y122.331 E99.76616
G1 X84.87 Y121.621 E99.85335
G1 X85.1 Y120.932 E99.94051
G1 X85.354 Y120.369 E100.01463
G1 X87.485 Y116.186 E100.57797
G1 X87.85 Y115.558 E100.66514
G1 X88.282 Y114.974 E100.75231
G1 X88.699 Y114.515 E100.82672
G1 X92.015 Y111.199 E101.38947
G1 X92.556 Y110.715 E101.47658
G1 X93.147 Y110.292 E101.56379
G1 X93.686 Y109.985 E101.63822
G1 X97.869 Y107.854 E102.20157
G1 X98.533 Y107.561 E102.28866
G1 X99.226 Y107.342 E102.37587
G1 X99.726 Y107.238 E102.43716
G1 X99.485 Y106.814 E102.49568
G1 X97.354 Y102.631 E103.05903
G1 X97.061 Y101.967 E103.14612
G1 X96.842 Y101.274 E103.23333
G1 X96.716 Y100.669 E103.30749
G1 X95.981 Y96.034 E103.87064
G1 X95.907 Y95.311 E103.95786
G1 X95.913 Y94.585 E104.04498
G1 X95.981 Y93.966 E104.1197
G1 X96.716 Y89.331 E104.68285
G1 X96.87 Y88.621 E104.77004
G1 X97.1 Y87.932 E104.8572
G1 X97.354 Y87.369 E104.93132
G1 X99.485 Y83.186 E105.49466
G1 X99.85 Y82.558 E105.58183
G1 X100.282 Y81.974 E105.669
G0 F3600 X100.618 Y82.195
G1 F1800 X100.982 Y81.798 E105.73363
G1 X104.298 Y78.482 E106.29637
G1 X104.823 Y78.013 E106.38085
G1 X105.398 Y77.607 E106.46532
G1 X105.868 Y77.342 E106.53007
G1 X110.051 Y75.211 E107.09341
G1 X110.695 Y74.927 E107.17787
G1 X111.367 Y74.719 E107.26228
G1 X111.894 Y74.612 E107.32682
G1 X116.529 Y73.877 E107.88996
G1 X117.229 Y73.806 E107.9744
G1 X117.933 Y73.815 E108.05888
